X:21
T: Válasz úti csárdába
O: Ördöngősfüzes, Hideg Istvánné - Lakatos Anna "Drága" (73), 2008
M:2/4
L:1/4
K:Bb
G/B/ A/G/ | d g | d z | 
g/g/ a/g/ | f f/g/ | 
a/g/ f/g/ | d B/c/ | 
d/e/ d/c/ | B A | G z | 


